img/popup_delete-img.svg

<svg width="42" height="53" viewBox="0 0 42 53" fill="none" xmlns="http://www.w3.org/2000/svg">
<path d="M33.2104 15.7007H26.7036C26.7472 15.8927 26.7908 16.0757 26.8259 16.2677C26.843 16.3634 26.8691 16.4682 26.8866 16.5729C26.9217 16.7649 26.9478 16.983 26.9824 17.1921L27.0085 17.4101L27.0089 17.4452C27.0175 17.5239 27.0264 17.5936 27.035 17.6718C27.0611 17.9421 27.0872 18.2738 27.0961 18.5963C27.2009 21.4136 26.5552 24.2048 25.2293 26.6647L25.1074 26.8827C24.8543 27.3539 24.5229 27.8683 24.1565 28.3742C23.9735 28.6273 23.7901 28.8625 23.6156 29.0895C23.4672 29.2725 23.3189 29.4469 23.1709 29.6128C23.0315 29.7698 22.9007 29.9181 22.7434 30.0665C22.4731 30.3632 22.1764 30.651 21.8711 30.9212V46.2301C21.8711 50.7307 24.1214 52.3359 26.2324 52.3359H27.9769V35.763C27.9769 35.2833 28.3694 34.8907 28.8492 34.8907C29.3289 34.8907 29.7214 35.2833 29.7214 35.763V52.3359H31.4659C33.5769 52.3359 35.8272 50.7307 35.8272 46.2301V34.4192C36.342 34.716 36.935 34.8904 37.5717 34.8904C39.4993 34.8904 41.0607 33.3289 41.0607 31.4014V23.5511C41.0607 19.2249 37.5366 15.7007 33.2104 15.7007L33.2104 15.7007Z" fill="#FC6733"/>
<path d="M12.1715 24.3715C12.939 24.2578 13.6633 23.979 14.3 23.5514C14.492 23.4291 14.684 23.2812 14.8584 23.1238C15.0239 22.9844 15.1633 22.8361 15.3031 22.6792C15.3728 22.6095 15.434 22.5398 15.4951 22.4611C15.652 22.2606 15.8004 22.0511 15.9052 21.8505C16.4285 20.9522 16.6727 19.9752 16.629 18.9806C16.6205 18.6142 16.5593 18.2567 16.4632 17.9078C16.4281 17.7334 16.3845 17.594 16.3323 17.4456C16.3062 17.3934 16.2801 17.3408 16.2537 17.2797C16.1489 17.018 16.0442 16.8175 15.9133 16.5905C15.9133 16.5819 15.9048 16.5819 15.9048 16.5729C15.7128 16.2591 15.4947 15.9624 15.242 15.7007H12.2763C11.1248 15.7007 10.026 16.1543 9.18833 16.983C8.36825 17.8116 7.91504 18.9105 7.91504 20.062C7.91504 22.3735 9.71169 24.2663 11.9885 24.4057C12.0497 24.3886 12.1104 24.38 12.1715 24.3714L12.1715 24.3715Z" fill="#FC6733"/>
<path d="M14.8931 48.8469C14.8931 50.7737 13.3308 52.336 11.4041 52.336C9.47733 52.336 7.91504 50.7737 7.91504 48.8469C7.91504 46.9202 9.47733 45.3579 11.4041 45.3579C13.3308 45.3579 14.8931 46.9202 14.8931 48.8469Z" fill="#FC6733"/>
<path d="M25.1078 11.5659C26.2768 12.9615 27.6809 13.9561 28.8499 13.9561C31.3619 13.9561 34.9557 9.33315 34.9557 6.1058C34.9557 2.73909 32.2167 0 28.8499 0C25.4832 0 22.7441 2.73909 22.7441 6.1058C22.7441 7.16108 23.1281 8.37367 23.7387 9.51617C24.1222 10.2405 24.5934 10.9383 25.1078 11.5659H25.1078Z" fill="#FC6733"/>
<path d="M22.7432 27.3542C23.066 26.9095 23.3538 26.4559 23.6154 25.9762C23.6415 25.9325 23.6676 25.8804 23.6941 25.8368C24.8456 23.6997 25.4472 21.2399 25.3514 18.6492C25.3428 18.3614 25.3164 18.0736 25.2903 17.7944C25.2813 17.6721 25.2642 17.5588 25.2552 17.4455C25.2116 17.1488 25.168 16.861 25.1068 16.5733C25.0547 16.2765 24.9846 15.9888 24.9149 15.701C23.3969 9.87443 18.181 5.48713 11.9706 5.2429C8.34219 5.10349 4.81807 6.35928 2.09653 8.79303C1.40729 9.41217 0.997689 10.2673 0.945054 11.1917C0.892874 12.1251 1.20673 13.0234 1.82587 13.7127C3.10814 15.1519 5.3149 15.2741 6.75418 13.9919C8.10612 12.7707 9.85921 12.1426 11.6909 12.2212C14.0818 12.317 16.2275 13.7126 17.414 15.7013C17.5798 15.9805 17.7278 16.2683 17.8501 16.5735C17.9724 16.8527 18.0767 17.1405 18.1468 17.4458C18.2776 17.917 18.3563 18.4053 18.3734 18.9111C18.4256 20.2806 18.0853 21.5715 17.44 22.6793C17.2742 22.9846 17.0736 23.2814 16.8555 23.5516C16.6024 23.8655 16.3236 24.1622 16.0183 24.4239C15.0328 25.3047 13.8026 25.8981 12.416 26.0987C9.80777 26.4737 7.91532 28.6368 7.91532 31.2364L7.91493 40.1245C7.91493 42.052 9.47642 43.6135 11.404 43.6135C13.3315 43.6135 14.893 42.052 14.893 40.1245V32.7103C17.6756 31.995 20.0829 30.4861 21.871 28.4448C22.1849 28.0959 22.4731 27.7299 22.7433 27.3544L22.7432 27.3542Z" fill="#FC6733"/>
</svg>

<svg width="42" height="53" viewBox="0 0 42 53" fill="none" xmlns="http://www.w3.org/2000/svg"><path d="M33.21 15.7h-6.506c.043.193.087.376.122.568.017.095.043.2.06.305.036.192.062.41.096.62l.027.217v.035c.008.079.017.149.026.227a15.781 15.781 0 0 1-1.806 8.993l-.122.218a13.56 13.56 0 0 1-.95 1.491c-.183.253-.367.489-.541.716-.149.183-.297.357-.445.523-.14.157-.27.305-.428.454-.27.296-.567.584-.872.854v15.31c0 4.5 2.25 6.105 4.361 6.105h1.745V35.763c0-.48.392-.872.872-.872s.872.392.872.872v16.573h1.745c2.11 0 4.361-1.605 4.361-6.106V34.42a3.478 3.478 0 0 0 1.745.47 3.488 3.488 0 0 0 3.489-3.489v-7.85c0-4.326-3.524-7.85-7.85-7.85zm-21.039 8.672a5.166 5.166 0 0 0 2.129-.82c.192-.123.384-.27.558-.428a4.32 4.32 0 0 0 .445-.445 4.169 4.169 0 0 0 .602-.829 5.2 5.2 0 0 0 .724-2.87 4.418 4.418 0 0 0-.166-1.072 3.27 3.27 0 0 0-.13-.462 3.17 3.17 0 0 1-.08-.166 5.086 5.086 0 0 0-.34-.69c0-.008-.008-.008-.008-.017a5.024 5.024 0 0 0-.663-.872h-2.966a4.364 4.364 0 0 0-4.361 4.361 4.346 4.346 0 0 0 4.073 4.344 1.49 1.49 0 0 1 .184-.035zm2.722 24.475a3.49 3.49 0 1 1-6.979 0 3.49 3.49 0 0 1 6.98 0zm10.215-37.281c1.169 1.395 2.573 2.39 3.742 2.39 2.512 0 6.106-4.623 6.106-7.85A6.113 6.113 0 0 0 28.85 0a6.113 6.113 0 0 0-6.106 6.106c0 1.055.384 2.268.995 3.41.383.725.854 1.422 1.369 2.05z" fill="#FC6733"/><path d="M22.743 27.354a12.6 12.6 0 0 0 .872-1.378c.027-.043.053-.096.08-.14a14.01 14.01 0 0 0 1.595-8.042c-.009-.122-.026-.235-.035-.349a13.837 13.837 0 0 0-.148-.872c-.052-.297-.122-.584-.192-.872C23.397 9.874 18.18 5.487 11.97 5.243a13.964 13.964 0 0 0-9.874 3.55 3.475 3.475 0 0 0-1.152 2.399 3.49 3.49 0 0 0 5.81 2.8 6.878 6.878 0 0 1 4.936-1.77c2.39.095 4.536 1.49 5.723 3.48.166.278.314.566.436.871.122.28.227.567.297.873.13.471.21.96.226 1.465a6.926 6.926 0 0 1-.933 3.768 5.847 5.847 0 0 1-.585.873c-.253.314-.531.61-.837.872a6.84 6.84 0 0 1-3.602 1.675c-2.608.375-4.5 2.538-4.5 5.137l-.001 8.888a3.488 3.488 0 1 0 6.978 0V32.71a13.819 13.819 0 0 0 6.978-4.265c.314-.35.602-.715.872-1.09z" fill="#FC6733"/></svg>
